src/icons/outline/media/share-external.svg

<svg width="24" height="24" viewBox="0 0 24 24" fill="none" xmlns="http://www.w3.org/2000/svg">
<g clip-path="url(#clip0_1_3332)">
<path fill-rule="evenodd" clip-rule="evenodd" d="M22.8026 1.20535C23.0689 1.47602 23.0653 1.91131 22.7946 2.17759L9.96131 14.8028C9.69064 15.0691 9.25536 15.0656 8.98907 14.7949C8.72279 14.5242 8.72635 14.0889 8.99702 13.8227L21.8304 1.19741C22.101 0.931125 22.5363 0.934683 22.8026 1.20535Z" fill="#1D1B20"/>
<path fill-rule="evenodd" clip-rule="evenodd" d="M14.2917 1.6875C14.2917 1.3078 14.5995 1 14.9792 1H22.3125C22.6922 1 23 1.3078 23 1.6875V8.90258C23 9.28228 22.6922 9.59008 22.3125 9.59008C21.9328 9.59008 21.625 9.28228 21.625 8.90258V2.375H14.9792C14.5995 2.375 14.2917 2.0672 14.2917 1.6875Z" fill="#1D1B20"/>
<path fill-rule="evenodd" clip-rule="evenodd" d="M1.43629 6.01962C1.71564 5.74027 2.09452 5.58333 2.48958 5.58333H12.1146C12.4943 5.58333 12.8021 5.89114 12.8021 6.27083C12.8021 6.65053 12.4943 6.95833 12.1146 6.95833H2.48958C2.45919 6.95833 2.43005 6.97041 2.40856 6.99189C2.38707 7.01338 2.375 7.04253 2.375 7.07292V21.5104C2.375 21.5408 2.38707 21.57 2.40856 21.5914C2.43005 21.6129 2.45919 21.625 2.48958 21.625H16.9271C16.9575 21.625 16.9866 21.6129 17.0081 21.5914C17.0296 21.57 17.0417 21.5408 17.0417 21.5104V11.8854C17.0417 11.5057 17.3495 11.1979 17.7292 11.1979C18.1089 11.1979 18.4167 11.5057 18.4167 11.8854V21.5104C18.4167 21.9055 18.2597 22.2844 17.9804 22.5637C17.701 22.8431 17.3221 23 16.9271 23H2.48958C2.09452 23 1.71564 22.8431 1.43629 22.5637C1.15694 22.2844 1 21.9055 1 21.5104V7.07292C1 6.67786 1.15694 6.29897 1.43629 6.01962Z" fill="#1D1B20"/>
</g>
<defs>
<clipPath id="clip0_1_3332">
<rect width="24" height="24" fill="white"/>
</clipPath>
</defs>
</svg>

<svg xmlns="http://www.w3.org/2000/svg" width="24" height="24" fill="none" viewBox="0 0 24 24"><g fill="currentColor" fill-rule="evenodd" clip-path="url(#a)" clip-rule="evenodd"><path d="M22.803 1.205a.687.687 0 0 1-.008.973L9.96 14.803a.687.687 0 1 1-.964-.98L21.83 1.197a.687.687 0 0 1 .973.008"/><path d="M14.292 1.688c0-.38.308-.688.687-.688h7.334c.38 0 .687.308.687.688v7.215a.687.687 0 1 1-1.375 0V2.375h-6.646a.687.687 0 0 1-.687-.687M1.436 6.02a1.5 1.5 0 0 1 1.054-.437h9.625a.688.688 0 0 1 0 1.375H2.49a.115.115 0 0 0-.115.115V21.51a.114.114 0 0 0 .115.115h14.437a.115.115 0 0 0 .115-.115v-9.625a.687.687 0 1 1 1.375 0v9.625a1.49 1.49 0 0 1-1.49 1.49H2.49A1.49 1.49 0 0 1 1 21.51V7.073c0-.395.157-.774.436-1.053"/></g><defs><clipPath id="a"><path fill="currentColor" d="M0 0h24v24H0z"/></clipPath></defs></svg>
